X:283
T:Lonesome Road Blues
C:Traditional
N:Transcribed by Mike Stangeland
R:bluegrass
L:1/8
Q:1/4=240
M:4/4
K:G
z8 | "G"[gd][gd] [gd][gd] [gd][gd] [gd][gd] | [g4e4] [g4d4] | GA ^AG =AG ED | 
G2 GA ^A=A G=F | "C"[cE][cE] [cE][cE] [cG][cG] [cG][cG] | ^AG =A_B AG ED | "G"[G4G,4] ^A=A GE | 
[GG,][GG,] [GG,][GG,] [G2G,2] D^D | "C"E4 G4 | ^AG =A_B AG ED | "G"G2 ^AG =AG ED | 
[G2G,2] [GG,][GG,] [G2G,2] FE | "D"DE FG AB c^c | dB cB AG FA | "G"G2 =FD ED B,A, | 
G,4 G,4 | z8 | 


